src/asset/site/download_google.svg

<svg width="178" height="52" viewBox="0 0 178 52" fill="none" xmlns="http://www.w3.org/2000/svg">
<path d="M171.407 52H6.59259C2.90074 52 0 49.14 0 45.5V6.5C0 2.86 2.90074 0 6.59259 0H171.407C175.099 0 178 2.86 178 6.5V45.5C178 49.14 175.099 52 171.407 52Z" fill="black"/>
<path fill-rule="evenodd" clip-rule="evenodd" d="M61.9665 15.8387C62.6237 15.1935 62.8866 14.2903 62.8866 13.2581V12.7419H59.0747V13.7742H61.9665C61.9665 14.4194 61.7036 14.9355 61.3093 15.3226C60.6521 15.9677 59.9948 16.2258 59.0747 16.2258C58.2861 16.2258 57.6289 15.8387 56.9716 15.3226C56.3144 14.8065 56.0515 14.0323 56.0515 13.129C56.0515 12.2258 56.3144 11.4516 56.9716 10.9355C57.4974 10.2903 58.2861 10.0323 59.0747 10.0323C59.9948 10.0323 60.6521 10.2903 61.1778 10.9355L61.8351 10.2903C61.5722 9.90323 61.1778 9.64516 60.6521 9.3871C60.1263 9.12903 59.6005 9 59.0747 9C57.8918 9 56.9716 9.3871 56.183 10.1613C55.3943 10.9355 55 11.8387 55 13C55 14.1613 55.3943 15.0645 56.183 15.8387C56.9716 16.6129 57.8918 17 59.0747 17C60.2577 17 61.1778 16.6129 61.9665 15.8387ZM65.384 10.0323H68.933V9.12903H64.3325V16.871H68.933V15.8387H65.384V13.3871H68.6701V12.4839H65.384V10.0323ZM73.2706 16.871H72.2191V10.0323H69.9845V9.12903H75.5052V10.0323H73.2706V16.871ZM80.3686 9.12903H79.317V16.871H80.3686V9.12903ZM84.7062 16.871H83.7861V10.0323H81.5515V9.12903H86.9407V10.0323H84.7062V16.871ZM94.433 17C95.616 17 96.5361 16.6129 97.3247 15.8387C98.1134 15.0645 98.5077 14.1613 98.5077 13C98.5077 11.8387 98.1134 10.9355 97.3247 10.1613C96.5361 9.3871 95.616 9 94.433 9C93.25 9 92.3299 9.3871 91.5412 10.1613C90.7526 10.9355 90.3582 11.8387 90.3582 13C90.3582 14.1613 90.7526 15.0645 91.5412 15.8387C92.3299 16.6129 93.25 17 94.433 17ZM92.3299 15.1935C92.8557 15.7097 93.6443 16.0968 94.433 16.0968C95.2216 16.0968 96.0103 15.8387 96.5361 15.1935C97.0619 14.6774 97.4562 13.9032 97.4562 13C97.4562 12.0968 97.1933 11.3226 96.5361 10.8065C96.0103 10.2903 95.2216 9.90323 94.433 9.90323C93.6443 9.90323 92.8557 10.1613 92.3299 10.8065C91.8041 11.3226 91.4098 12.0968 91.4098 13C91.4098 13.9032 91.6727 14.6774 92.3299 15.1935ZM101.137 9.12903H99.9536V16.871H100.874V10.5484L104.948 16.871H106V9.12903H104.948V15.1935L101.137 9.12903Z" fill="white"/>
<path fill-rule="evenodd" clip-rule="evenodd" d="M62.7376 29.8107V32.1538H68.4303C68.2979 33.4556 67.7683 34.497 67.1064 35.1479C66.3121 35.929 64.9882 36.8402 62.7376 36.8402C59.1631 36.8402 56.5154 34.1065 56.5154 30.5917C56.5154 27.0769 59.2955 24.3432 62.7376 24.3432C64.591 24.3432 66.0473 25.1243 67.1064 26.0355L68.8274 24.3432C67.3712 23.0414 65.5177 22 62.87 22C58.104 22 54 25.9053 54 30.5917C54 35.2781 58.104 39.1834 62.87 39.1834C65.5177 39.1834 67.3712 38.4024 68.9598 36.7101C70.5485 35.1479 71.078 32.9349 71.078 31.2426C71.078 30.7219 71.078 30.2012 70.9456 29.8107H62.7376ZM77.4326 28.1183C74.2553 28.1183 71.74 30.4615 71.74 33.716C71.74 36.8402 74.2553 39.3136 77.4326 39.3136C80.6099 39.3136 83.1253 36.9704 83.1253 33.716C83.1253 30.3314 80.6099 28.1183 77.4326 28.1183ZM84.052 33.716C84.052 30.4615 86.5674 28.1183 89.7447 28.1183C92.922 28.1183 95.4374 30.3314 95.4374 33.716C95.4374 36.9704 92.922 39.3136 89.7447 39.3136C86.5674 39.3136 84.052 36.8402 84.052 33.716ZM86.5674 33.5858C86.5674 35.5385 88.0236 36.9704 89.7447 36.9704C91.4657 36.9704 92.922 35.5385 92.922 33.5858C92.922 31.503 91.4657 30.2012 89.7447 30.2012C88.0236 30.2012 86.5674 31.6331 86.5674 33.5858ZM74.2553 33.5858C74.2553 35.5385 75.7116 36.9704 77.4326 36.9704C79.1537 36.9704 80.6099 35.5385 80.6099 33.5858C80.6099 31.503 79.1537 30.2012 77.4326 30.2012C75.7116 30.2012 74.2553 31.6331 74.2553 33.5858ZM118.076 28.1183C120.988 28.1183 122.312 30.3314 122.842 31.6331L123.106 32.284L115.56 35.4083C116.222 36.5799 117.017 37.1006 118.34 37.1006C119.664 37.1006 120.459 36.4497 121.121 35.5385L122.974 36.8402C122.444 37.7515 120.856 39.3136 118.34 39.3136C115.163 39.3136 112.78 36.8402 112.78 33.716C112.78 30.3314 115.163 28.1183 118.076 28.1183ZM115.163 33.4556C115.163 31.3728 116.884 30.2012 118.076 30.2012C119.002 30.2012 119.929 30.7219 120.194 31.3728L115.163 33.4556ZM111.456 38.7929H108.941V22.5207H111.456V38.7929ZM104.969 29.2899C104.307 28.6391 103.248 27.9882 101.924 27.9882C99.1442 27.9882 96.4965 30.4615 96.4965 33.5858C96.4965 36.7101 99.0118 39.0533 101.924 39.0533C103.248 39.0533 104.307 38.4024 104.837 37.7515H104.969V38.5325C104.969 40.6154 103.778 41.787 101.924 41.787C100.468 41.787 99.409 40.7456 99.1442 39.8343L97.026 40.7456C97.6879 42.1775 99.2766 44 102.057 44C104.969 44 107.352 42.3077 107.352 38.2722V28.3787H104.969V29.2899ZM98.8794 33.5858C98.8794 35.5385 100.336 36.9704 102.057 36.9704C103.778 36.9704 105.102 35.5385 105.102 33.5858C105.102 31.6331 103.778 30.2012 102.057 30.2012C100.336 30.2012 98.8794 31.6331 98.8794 33.5858ZM134.359 22.5207H128.402V38.7929H130.917V32.6746H134.359C137.139 32.6746 139.787 30.7219 139.787 27.5976C139.787 24.4734 137.139 22.5207 134.359 22.5207ZM130.917 30.3314H134.492C136.213 30.3314 137.272 28.8994 137.404 27.4675C137.404 26.2959 136.345 24.7337 134.492 24.7337H130.917V30.3314ZM149.716 27.9882C147.863 27.9882 146.009 28.7692 145.348 30.4615L147.598 31.3728C148.128 30.4615 148.922 30.2012 149.849 30.2012C151.173 30.2012 152.364 30.9822 152.496 32.284V32.4142C152.099 32.1538 151.04 31.7633 149.981 31.7633C147.598 31.7633 145.215 33.0651 145.215 35.4083C145.215 37.6213 147.201 39.0533 149.319 39.0533C151.04 39.0533 151.835 38.2722 152.496 37.4911H152.629V38.7929H155.012V32.5444C154.747 29.6805 152.496 27.9882 149.716 27.9882ZM147.466 35.5385C147.466 36.5799 148.657 36.9704 149.452 36.9704C150.775 36.9704 152.099 35.929 152.364 34.3669C152.328 34.3528 152.293 34.3387 152.258 34.3247C152.227 34.3125 152.197 34.3003 152.167 34.2882C151.59 34.0566 151.066 33.8462 150.113 33.8462C148.922 33.8462 147.466 34.2367 147.466 35.5385ZM163.352 28.3787L160.572 35.4083H160.44L157.527 28.3787H154.879L159.248 38.2722L156.733 43.7396H159.248L166 28.3787H163.352ZM143.626 38.7929H141.111V22.5207H143.626V38.7929Z" fill="white"/>
<path d="M13.5348 9.65381C13.1337 10.0461 13 10.7 13 11.4846V40.3846C13 41.1692 13.2674 41.823 13.6685 42.2153L13.8022 42.3461L30.3808 26.1307V25.8692L13.5348 9.65381Z" fill="url(#paint0_linear)"/>
<path d="M35.7297 31.623L30.248 26.2614V25.8691L35.7297 20.5076L35.8634 20.6383L42.4146 24.2999C44.2864 25.346 44.2864 27.046 42.4146 28.0922L35.7297 31.623Z" fill="url(#paint1_linear)"/>
<path d="M35.8629 31.4923L30.2475 26L13.5352 42.3462C14.2037 43 15.1395 43 16.3428 42.4769L35.8629 31.4923Z" fill="url(#paint2_linear)"/>
<path d="M35.8629 20.5076L16.3428 9.65375C15.1395 8.9999 14.2037 9.13067 13.5352 9.78452L30.2475 25.9999L35.8629 20.5076Z" fill="url(#paint3_linear)"/>
<path opacity="0.2" d="M35.7292 31.3613L16.3428 42.0844C15.2732 42.7383 14.3373 42.6075 13.6689 42.0844L13.5352 42.2152L13.6689 42.3459C14.3373 42.869 15.2732 42.9998 16.3428 42.3459L35.7292 31.3613Z" fill="black"/>
<path opacity="0.12" fill-rule="evenodd" clip-rule="evenodd" d="M35.7288 31.3615L42.4137 27.7C43.2159 27.1769 43.7507 26.6538 43.7507 26C43.7507 26.6538 43.3496 27.3077 42.4137 27.8308L35.8625 31.4923L35.7288 31.3615ZM13.0241 40.7861C13.078 41.3327 13.2284 41.7849 13.5348 42.0846H13.5478C13.5865 42.1309 13.6268 42.1746 13.6685 42.2154V42.0846H13.5478C13.2801 41.764 13.0889 41.3149 13.0241 40.7861ZM13.0241 40.7861C13.0075 40.6171 13 40.4391 13 40.2538V40.3846C13 40.5227 13.0083 40.6568 13.0241 40.7861Z" fill="black"/>
<path opacity="0.25" d="M16.3425 9.78452L42.4137 24.2999C43.2159 24.823 43.7507 25.3461 43.7507 25.9999C43.7507 25.3461 43.3496 24.6922 42.4137 24.1691L16.3425 9.65375C14.4707 8.6076 13 9.39221 13 11.4845V11.6153C13 9.65375 14.4707 8.73836 16.3425 9.78452Z" fill="white"/>
<defs>
<linearGradient id="paint0_linear" x1="22.9428" y1="-9.86677" x2="-3.53889" y2="-2.54615" gradientUnits="userSpaceOnUse">
<stop stop-color="#00A0FF"/>
<stop offset="0.007" stop-color="#00A1FF"/>
<stop offset="0.26" stop-color="#00BEFF"/>
<stop offset="0.512" stop-color="#00D2FF"/>
<stop offset="0.76" stop-color="#00DFFF"/>
<stop offset="1" stop-color="#00E3FF"/>
</linearGradient>
<linearGradient id="paint1_linear" x1="44.8667" y1="12.752" x2="12.5156" y2="12.752" gradientUnits="userSpaceOnUse">
<stop stop-color="#FFE000"/>
<stop offset="0.409" stop-color="#FFBD00"/>
<stop offset="0.775" stop-color="#FFA500"/>
<stop offset="1" stop-color="#FF9C00"/>
</linearGradient>
<linearGradient id="paint2_linear" x1="13.1113" y1="17.5184" x2="-7.54326" y2="52.9721" gradientUnits="userSpaceOnUse">
<stop stop-color="#FF3A44"/>
<stop offset="1" stop-color="#C31162"/>
</linearGradient>
<linearGradient id="paint3_linear" x1="0.542405" y1="5.18084" x2="9.69179" y2="21.0327" gradientUnits="userSpaceOnUse">
<stop stop-color="#32A071"/>
<stop offset="0.069" stop-color="#2DA771"/>
<stop offset="0.476" stop-color="#15CF74"/>
<stop offset="0.801" stop-color="#06E775"/>
<stop offset="1" stop-color="#00F076"/>
</linearGradient>
</defs>
</svg>

<svg width="178" height="52" fill="none" xmlns="http://www.w3.org/2000/svg"><path d="M171.407 52H6.593C2.9 52 0 49.14 0 45.5v-39C0 2.86 2.9 0 6.593 0h164.814C175.099 0 178 2.86 178 6.5v39c0 3.64-2.901 6.5-6.593 6.5z" fill="#000"/><path fill-rule="evenodd" clip-rule="evenodd" d="M61.967 15.839c.657-.646.92-1.549.92-2.58v-.517h-3.812v1.032h2.892c0 .645-.263 1.162-.658 1.549-.657.645-1.314.903-2.234.903-.789 0-1.446-.387-2.103-.903-.658-.517-.92-1.29-.92-2.194 0-.903.262-1.677.92-2.194.525-.645 1.314-.903 2.103-.903.92 0 1.577.258 2.103.903l.657-.645c-.263-.387-.657-.645-1.183-.903A3.553 3.553 0 0059.075 9c-1.183 0-2.103.387-2.892 1.161C55.394 10.935 55 11.84 55 13s.394 2.065 1.183 2.839S57.892 17 59.075 17c1.183 0 2.103-.387 2.892-1.161zm3.417-5.807h3.549V9.13h-4.6v7.742h4.6v-1.032h-3.549v-2.452h3.286v-.903h-3.286v-2.452zm7.887 6.839h-1.052v-6.839h-2.234V9.13h5.52v.903h-2.234v6.839zm7.098-7.742h-1.052v7.742h1.052V9.129zm4.337 7.742h-.92v-6.839h-2.234V9.13h5.389v.903h-2.235v6.839zm9.727.129c1.183 0 2.103-.387 2.892-1.161.788-.774 1.183-1.678 1.183-2.839s-.395-2.065-1.183-2.839C96.536 9.387 95.616 9 94.433 9c-1.183 0-2.103.387-2.892 1.161-.788.774-1.183 1.678-1.183 2.839s.395 2.065 1.183 2.839C92.33 16.613 93.25 17 94.433 17zm-2.103-1.806c.526.516 1.314.903 2.103.903.789 0 1.577-.258 2.103-.904.526-.516.92-1.29.92-2.193s-.263-1.677-.92-2.194c-.526-.516-1.314-.903-2.103-.903-.789 0-1.577.258-2.103.903A3.084 3.084 0 0091.41 13c0 .903.263 1.677.92 2.194zm8.807-6.065h-1.183v7.742h.92v-6.323l4.074 6.323H106V9.129h-1.052v6.065l-3.811-6.065zM62.738 29.81v2.344h5.692c-.132 1.302-.662 2.343-1.324 2.994-.794.781-2.118 1.692-4.368 1.692-3.575 0-6.223-2.734-6.223-6.248 0-3.515 2.78-6.249 6.223-6.249 1.853 0 3.31.781 4.368 1.692l1.721-1.692C67.371 23.041 65.517 22 62.87 22 58.104 22 54 25.905 54 30.592c0 4.686 4.104 8.591 8.87 8.591 2.648 0 4.501-.78 6.09-2.473 1.589-1.562 2.118-3.775 2.118-5.467 0-.521 0-1.042-.132-1.432h-8.208zm14.695-1.692c-3.178 0-5.693 2.344-5.693 5.598 0 3.124 2.515 5.598 5.693 5.598 3.177 0 5.692-2.344 5.692-5.598 0-3.385-2.515-5.598-5.692-5.598zm6.619 5.598c0-3.255 2.515-5.598 5.693-5.598 3.177 0 5.692 2.213 5.692 5.598 0 3.254-2.515 5.598-5.692 5.598-3.178 0-5.693-2.474-5.693-5.598zm2.515-.13c0 1.953 1.457 3.384 3.178 3.384 1.72 0 3.177-1.431 3.177-3.384 0-2.083-1.456-3.385-3.177-3.385s-3.178 1.432-3.178 3.385zm-12.312 0c0 1.953 1.457 3.384 3.178 3.384 1.72 0 3.177-1.431 3.177-3.384 0-2.083-1.456-3.385-3.177-3.385s-3.178 1.432-3.178 3.385zm43.821-5.468c2.912 0 4.236 2.213 4.766 3.515l.264.651-7.546 3.124c.662 1.172 1.457 1.693 2.78 1.693 1.324 0 2.119-.651 2.781-1.563l1.853 1.302c-.53.911-2.118 2.474-4.634 2.474-3.177 0-5.56-2.474-5.56-5.598 0-3.385 2.383-5.598 5.296-5.598zm-2.913 5.338c0-2.083 1.721-3.255 2.913-3.255.926 0 1.853.52 2.118 1.172l-5.031 2.083zm-3.707 5.337h-2.515V22.52h2.515v16.272zm-6.487-9.503c-.662-.65-1.721-1.302-3.045-1.302-2.78 0-5.428 2.474-5.428 5.598a5.435 5.435 0 005.428 5.467c1.324 0 2.383-.65 2.913-1.301h.132v.78c0 2.083-1.191 3.255-3.045 3.255-1.456 0-2.515-1.041-2.78-1.953l-2.118.912c.662 1.431 2.25 3.254 5.031 3.254 2.912 0 5.295-1.692 5.295-5.728V28.38h-2.383v.91zm-6.09 4.296c0 1.953 1.457 3.384 3.178 3.384 1.721 0 3.045-1.431 3.045-3.384 0-1.953-1.324-3.385-3.045-3.385-1.721 0-3.178 1.432-3.178 3.385zm35.48-11.065h-5.957v16.272h2.515v-6.118h3.442c2.78 0 5.428-1.953 5.428-5.077 0-3.125-2.648-5.077-5.428-5.077zm-3.442 7.81h3.575c1.721 0 2.78-1.432 2.912-2.863 0-1.172-1.059-2.734-2.912-2.734h-3.575v5.597zm18.799-2.343c-1.853 0-3.707.781-4.368 2.474l2.25.91c.53-.91 1.324-1.17 2.251-1.17 1.324 0 2.515.78 2.647 2.082v.13c-.397-.26-1.456-.65-2.515-.65-2.383 0-4.766 1.301-4.766 3.644 0 2.213 1.986 3.645 4.104 3.645 1.721 0 2.516-.78 3.177-1.562h.133v1.302h2.383v-6.249c-.265-2.863-2.516-4.556-5.296-4.556zm-2.25 7.55c0 1.042 1.191 1.432 1.986 1.432 1.323 0 2.647-1.041 2.912-2.603l-.106-.042-.091-.037c-.577-.231-1.101-.442-2.054-.442-1.191 0-2.647.39-2.647 1.693zm15.886-7.16l-2.78 7.03h-.132l-2.913-7.03h-2.648l4.369 9.894-2.515 5.468h2.515L166 28.379h-2.648zm-19.726 10.415h-2.515V22.52h2.515v16.272z" fill="#fff"/><path d="M13.535 9.654c-.401.392-.535 1.046-.535 1.83v28.9c0 .785.267 1.439.668 1.831l.134.131 16.579-16.215v-.262L13.535 9.654z" fill="url(#paint0_linear)"/><path d="M35.73 31.623l-5.482-5.362v-.392l5.482-5.361.133.13 6.552 3.662c1.871 1.046 1.871 2.746 0 3.792l-6.685 3.531z" fill="url(#paint1_linear)"/><path d="M35.863 31.492L30.247 26 13.535 42.346c.669.654 1.604.654 2.808.13l19.52-10.984z" fill="url(#paint2_linear)"/><path d="M35.863 20.508L16.343 9.654c-1.204-.654-2.14-.523-2.808.13L30.247 26l5.616-5.492z" fill="url(#paint3_linear)"/><path opacity=".2" d="M35.73 31.361L16.342 42.084c-1.07.654-2.006.523-2.674 0l-.134.131.134.13c.668.524 1.604.655 2.674 0l19.386-10.984z" fill="#000"/><path opacity=".12" fill-rule="evenodd" clip-rule="evenodd" d="M35.729 31.361l6.685-3.661c.802-.523 1.337-1.046 1.337-1.7 0 .654-.401 1.308-1.337 1.83l-6.552 3.662-.133-.13zm-22.705 9.425c.054.547.204.999.51 1.299h.014c.038.046.079.09.12.13v-.13h-.12c-.268-.321-.46-.77-.524-1.299zm0 0a5.465 5.465 0 01-.024-.532v.13c0 .139.008.273.024.402z" fill="#000"/><path opacity=".25" d="M16.343 9.785L42.413 24.3c.803.523 1.338 1.046 1.338 1.7 0-.654-.401-1.308-1.337-1.83L16.342 9.653C14.472 8.608 13 9.392 13 11.484v.131c0-1.961 1.47-2.877 3.343-1.83z" fill="#fff"/><defs><linearGradient id="paint0_linear" x1="22.943" y1="-9.867" x2="-3.539" y2="-2.546" gradientUnits="userSpaceOnUse"><stop stop-color="#00A0FF"/><stop offset=".007" stop-color="#00A1FF"/><stop offset=".26" stop-color="#00BEFF"/><stop offset=".512" stop-color="#00D2FF"/><stop offset=".76" stop-color="#00DFFF"/><stop offset="1" stop-color="#00E3FF"/></linearGradient><linearGradient id="paint1_linear" x1="44.867" y1="12.752" x2="12.516" y2="12.752" gradientUnits="userSpaceOnUse"><stop stop-color="#FFE000"/><stop offset=".409" stop-color="#FFBD00"/><stop offset=".775" stop-color="orange"/><stop offset="1" stop-color="#FF9C00"/></linearGradient><linearGradient id="paint2_linear" x1="13.111" y1="17.518" x2="-7.543" y2="52.972" gradientUnits="userSpaceOnUse"><stop stop-color="#FF3A44"/><stop offset="1" stop-color="#C31162"/></linearGradient><linearGradient id="paint3_linear" x1=".542" y1="5.181" x2="9.692" y2="21.033" gradientUnits="userSpaceOnUse"><stop stop-color="#32A071"/><stop offset=".069" stop-color="#2DA771"/><stop offset=".476" stop-color="#15CF74"/><stop offset=".801" stop-color="#06E775"/><stop offset="1" stop-color="#00F076"/></linearGradient></defs></svg>
